!!! OTL: Berkowitz358
!!! Chapter: 1
!!! Section: III
!!! Page: 87
!!! Mode: 
!!! Encoder: DJB
**kern
*staff1
*I"Piano
=1-
*clefC3
*k[b-]
*d:
*M3/4
8r
[8a\
8a\L]
8f\J
8e\L
8d\J
=2
8r
[8b-\
8b-\L]
8g\J
8e\L
8d\J
=3
4c#\
4.a\
8e\
=4
16g\LL
16f\
16e\
16f\JJ
2d\
=5
8r
[8cc\
8cc\L]
8a\J
8g\L
8f\J
=6
8r
[8dd\
8dd\L]
8b-\J
8a\L
8g\J
=7
8.a\L
16b-\Jk
4.cc\
16g\LL
16a\JJ
=8
!!linebreak:original
4g\
2f\
=9
8r
8f#\
8d\L
8f#\J
8a\L
8cc\J
=10
8.b-\L
16a\Jk
2g\
=11
8g#\L
8a\J
8b-\L
8e\J
8f#\L
8g#\J
=12
8a\L
8e\J
8c#\L
8e\J
4A/
=13
8r
[8a\
8a\L]
8f\J
8e\L
8d\J
=14
8r
[8dd\
8dd\L]
8b-\J
8a\L
8g\J
=15
!!linebreak:original
4g#\
4a\
8r
8A/
=16
16g\LL
16f\
16e\
16f\JJ
2d\
==
*-
